X:404
T:Fair-haired Boy, The
T:Fairhaired Boy, The
R:jig
S:Majella Bartley on Youtube
Z:hn-jig-404
M:6/8
L:1/8
K:Ador
EAA EAA | ~g3 edB | BAB edB | ~B3 GED |
EAA EAA | g2g edB | BAB edB |1 BAG A2G :|2 BAG ABd ||
|: e2a bag | eaf ged | BAB edB | ~B3 GED |
[1 e2a bag | eaf ged | B2B edB | BAG AB/c/d |
[2 EAA EAA | gfg edB | BAB edB | BAG A2G :|
P:fully ornamented and variations
EA{G}A EA{G}A | ~g3 {d}edB | {c}BAB dBG | ~B3 G{D}ED |
EA{G}A EA{G}A | g2g {d}edB | {c}BAB edB | {c}BAG A{c}AG |
EGA EGA | g2g {d}edB | {c}BAB {d}edB | {c}BAB G{D}ED |
EA{c}A EGA | ~g3 {d}edB | {c}BAB {d}edB | {c}BAG AB/c/d ||
e2a {c'}bag | eaf {a}g{d}ed | BAB dBG | ~B3 {F}GED |
e2a {c'}bag | e/g/af {a}g{d}ed | B2B {d}edB | {c}BAG AB/c/d |
ea{g}a {c'}bag | e2f {a}g{d}ed | BAG ~d3 | B/c/dB AGF |
E2A EA{G}A | gfg {a}edB | {c}BAB {d}edB | {c}BAG ~A2G ||

